X:1
T:Albro, 87.87 D
T:Albro, 87.87 D
T:Carmina Sacra, 1841
T:Public Domain Courtesy of the Cyber Hymnal™
C:Carmina Sacra, 1841
Z:Public Domain
Z:Courtesy of the Cyber Hymnal™
%%score 1 ( 2 3 )
L:1/8
Q:1/4=98
M:3/4
K:E
V:1 treble 
V:2 bass 
V:3 bass 
V:1
|: [EB][DB] | [EB]2 [EG]2 [EA][Ec] | [Ec]2 [EB]2 [EB][EB] | [EB][FA] [EG]2 [DF]2 | [EG]4 :| %5
 [DF][DF] | [FA]2 [DF]2 [EG][GB] | [GB]2 [EG]2 [DF][DF] | [EG][GB] [FA]2 [EG]2 | [DF]4 [EB][DB] | %10
 [EB]2 [EG]2 [EA][Ec] | [Ec]2 [EB]2 [EB][EB] | [EB][FA] [EG]2 [DF]2 | [EG]4 |] %14
V:2
|: [E,G,][B,,F,] | [E,G,]2 [E,B,]2 [A,C]A, | [E,A,]2 [E,G,]2 [E,G,][F,A,] | %3
 [G,B,][A,C] B,2 [B,,B,]2 | [E,B,]4 :| [B,,B,][B,,B,] | [B,,B,]2 [B,,B,]2 [E,B,][E,E] | %7
 [E,E]2 [E,B,]2 [B,,B,][B,,B,] | [E,B,][E,B,] [D,B,]2 [E,B,]2 | [B,,B,]4 [E,G,][B,,F,] | %10
 [E,G,]2 [E,B,]2 [A,C]A, | [E,A,]2 [E,G,]2 [E,G,][F,A,] | [G,B,][A,C] B,2 [B,,B,]2 | [E,B,]4 |] %14
V:3
|: x2 | x5 A, | x6 | x2 B,2 x2 | x4 :| x2 | x6 | x6 | x6 | x6 | x5 A, | x6 | x2 B,2 x2 | x4 |] %14

